!!!OTL: 1016. Oberschwaebisches Tanzliedchen.
!!!ARE: Europa, Mitteleuropa, Deutschland
!!!SCT: E1016
!!!TXL: @@GSW
!!!YEM: Copyright 1995, estate of Helmut Schaffrath.
**kern	**text
*ICvox	*
*M3/8	*
*k[]	*
*C:	*
=1	=1
!LO:TX:a:t=Jm Tempo eines Ländlers.	!
!LO:TX:a:t=Mitgeth. bei Silcher, Volksl. 7. Heft, Nr. 6, 1837.	!
{8.ee	Ro-
16dd	-ſe-
16ccL	-ſtock,
16eJ	.
=2	=2
8a	Hol-
16gL	-der-
16fJ	.
8d}	-blüt,
=3	=3
{8a	wenn
16gL	i
16fJ	.
8d	mein
=4	=4
8a	Dienderl
16gL	.
16eJ	.
8c}	ſieh,
=5	=5
{8.ee	lacht
16dd	mer
16ccL	vor
16gJ	.
=6	=6
8a	lau-
16gL	-ter
16fJ	.
8d}	Freud
=7	=7
{8g	's_Herʒerl
8b	.
8dd	im
=8	=8
4cc	Leib.
8r}	.
=9	=9
{16ff'	La
16ee'	la
4dd^	la,
=10	=10
16ee'	la
16dd'	la
4b^}	la,
=11	=11
{8g	la
8a	la
8cc	la,
=12	=12
8ddq	.
16cc	la
16b	la
16cc	la
16dd	la
8ee}	la,
=13	=13
{16ff'	La
16ee'	la
4dd^	la,
=14	=14
16ee'	la
16dd'	la
4b^}	la,
=15	=15
{8g	la
8a	la
8cc	la,
=16	=16
4cc	la.
8r}	.
==	==
!!!AGN: Tanz - Lied; Liebe
!!!ONB: ESAC (Essen Associative Code) Database: ERK3
!!!AMT: simple triple
!!!AIN: vox
!!!EED: Helmut Schaffrath
!!!EEV: 1.0
!!!GTL: Tanz- und Spiellieder
!!!URL-scan: https://rosdok.uni-rostock.de/mcrviewer/recordIdentifier/rosdok_ppn745177662/iview2/phys_0776.iview2?x=-4.404412318551749&y=37.3336994103156&scale=0.6456904138606624&rotation=0&layout=singlePageLayout
!!!ENC: Anna Maria Matuszewska
!!!EEV: 2024/12/23
*-	*-
